X: 1
T: Kent To Kintail
R: reel
M: 4/4
L: 1/8
K: Ddor
DAGF A2GF|DAGF DCA,D-|DAGF A2GA|1 GAcd cAGD-:|2 GAcd cAGA-||
ADEF GAcG-|GCDE GAcA-|ADEF GAcd-|dcAG- GAcA-|
ADEF GAcG-|GCDE GAcd-|dcAc- cAG.A|z4 z2 D2-||

